packages/react-icons/icons/clock-filled.svg

<svg xmlns="http://www.w3.org/2000/svg" width="24" height="24"><path fill-rule="evenodd" d="M2 12C2 6.48 6.47 2 11.99 2 17.52 2 22 6.48 22 12s-4.48 10-10.01 10C6.47 22 2 17.52 2 12Zm9.72-5h.06c.4 0 .72.32.72.72v4.54l3.87 2.3c.35.2.46.65.25.99-.2.34-.64.44-.98.24l-4.15-2.49a.99.99 0 0 1-.49-.86V7.72c0-.4.32-.72.72-.72Z" clip-rule="evenodd"/></svg>

<svg width="24" height="24" viewBox="0 0 24 24" xmlns="http://www.w3.org/2000/svg">
<path fill-rule="evenodd" clip-rule="evenodd" d="M2 12C2 6.48 6.47 2 11.99 2C17.52 2 22 6.48 22 12C22 17.52 17.52 22 11.99 22C6.47 22 2 17.52 2 12ZM11.72 7H11.78C12.18 7 12.5 7.32 12.5 7.72V12.26L16.37 14.56C16.72 14.76 16.83 15.21 16.62 15.55C16.42 15.89 15.98 15.99 15.64 15.79L11.49 13.3C11.18 13.12 11 12.79 11 12.44V7.72C11 7.32 11.32 7 11.72 7Z" />
</svg>
